X:2845
T:Charles O'Connor
C:Turlough O'Carolan
R:jig
Z:id:hn-carolan-15
M:6/8
K:D
A |: d2A d2A | BAG FGA | Bcd ecA | dfa a2g |
fef BcB | ede ABA | dcB AFA |1 d3 d2A :|2 d3 dcB ||
|: A2D FED | BGB AFA | DFA FDA | GEe c2A |
f2f fef | fef fdB | e2e eae | eae ecA |
dcB AFE | FAd f2e | dcB AFA |1 d3 dcB :|2 d3 d2 ||


